public/images/icons/star.svg

<svg fill="none" height="21" viewBox="0 0 20 21" width="20" xmlns="http://www.w3.org/2000/svg"><path d="m9.81345 14.1593-5.78333 4.4083c-.24167.1833-.56667-.075-.44167-.35l2.6-5.925c.05-.125.01667-.2667-.08333-.35l-5.441667-4.25834c-.216666-.16667-.099999-.525.183335-.525h5.650002c.10833 0 .19999-.05833.24999-.15l3-5.28333c.10834-.2.39162-.2.50832 0l3 5.28333c.05.09167.15.15.25.15h5.65c.275 0 .4.35.1834.525l-5.4417 4.25834c-.1083.0833-.1417.225-.0833.35l2.5999 5.925c.125.275-.2083.5333-.4416.35l-5.7833-4.4083c-.1084-.0834-.25005-.0834-.35005 0z" fill="#33b4ff"/></svg>

<svg width="20" height="21" viewBox="0 0 20 21" fill="none" xmlns="http://www.w3.org/2000/svg">
<g id="star">
<path id="Vector" d="M9.81345 14.1593L4.03012 18.5676C3.78845 18.7509 3.46345 18.4926 3.58845 18.2176L6.18845 12.2926C6.23845 12.1676 6.20512 12.0259 6.10512 11.9426L0.663453 7.68426C0.446787 7.51759 0.563454 7.15926 0.846788 7.15926H6.49679C6.60512 7.15926 6.69678 7.10093 6.74678 7.00926L9.74678 1.72593C9.85512 1.52593 10.1384 1.52593 10.2551 1.72593L13.2551 7.00926C13.3051 7.10093 13.4051 7.15926 13.5051 7.15926H19.1551C19.4301 7.15926 19.5551 7.50926 19.3385 7.68426L13.8968 11.9426C13.7885 12.0259 13.7551 12.1676 13.8135 12.2926L16.4134 18.2176C16.5384 18.4926 16.2051 18.7509 15.9718 18.5676L10.1885 14.1593C10.0801 14.0759 9.93845 14.0759 9.83845 14.1593H9.81345Z" fill="#33B4FF"/>
</g>
</svg>
